Improvs/dist/images/max_ratings_template/black-star.svg

<svg width="25" height="24" viewBox="0 0 25 24" fill="none" xmlns="http://www.w3.org/2000/svg">
<path d="M12.2273 0.206082C12.3053 -0.0686939 12.6947 -0.0686941 12.7727 0.206082L14.5499 6.47019C14.5998 6.64619 14.8009 6.72949 14.9607 6.64035L20.6467 3.46762C20.8962 3.32845 21.1716 3.60384 21.0324 3.85326L17.8597 9.53932C17.7705 9.69908 17.8538 9.90018 18.0298 9.95012L24.2939 11.7273C24.5687 11.8053 24.5687 12.1947 24.2939 12.2727L18.0298 14.0499C17.8538 14.0998 17.7705 14.3009 17.8597 14.4607L21.0324 20.1467C21.1715 20.3962 20.8962 20.6716 20.6467 20.5324L14.9607 17.3597C14.8009 17.2705 14.5998 17.3538 14.5499 17.5298L12.7727 23.7939C12.6947 24.0687 12.3053 24.0687 12.2273 23.7939L10.4501 17.5298C10.4002 17.3538 10.1991 17.2705 10.0393 17.3597L4.35326 20.5324C4.10384 20.6715 3.82845 20.3962 3.96762 20.1467L7.14035 14.4607C7.22949 14.3009 7.14619 14.0998 6.97019 14.0499L0.706082 12.2727C0.431306 12.1947 0.431306 11.8053 0.706082 11.7273L6.97019 9.95012C7.14619 9.90018 7.22949 9.69908 7.14035 9.53932L3.96762 3.85326C3.82845 3.60384 4.10384 3.32845 4.35326 3.46762L10.0393 6.64035C10.1991 6.72949 10.4002 6.64619 10.4501 6.47019L12.2273 0.206082Z" fill="black"/>
</svg>

<svg width="25" height="24" fill="none" xmlns="http://www.w3.org/2000/svg"><path d="M12.227.206c.078-.275.468-.275.546 0L14.55 6.47c.05.176.25.26.41.17l5.687-3.172c.25-.14.525.136.385.385L17.86 9.54a.283.283 0 00.17.411l6.264 1.777c.275.078.275.468 0 .546L18.03 14.05a.283.283 0 00-.17.41l3.172 5.687c.14.25-.136.525-.385.385L14.96 17.36a.283.283 0 00-.411.17l-1.777 6.264c-.078.275-.468.275-.546 0L10.45 17.53a.283.283 0 00-.41-.17l-5.687 3.172c-.25.14-.525-.136-.385-.385L7.14 14.46a.283.283 0 00-.17-.411L.706 12.273c-.275-.078-.275-.468 0-.546L6.97 9.95a.283.283 0 00.17-.41L3.968 3.852c-.14-.25.136-.525.385-.385L10.04 6.64c.16.09.361.006.411-.17L12.227.206z" fill="#000"/></svg>
